X:276
T:B276-  Lay the Bent to the Bonny Broom
Q:1/4=120
L:1/8
M:3/4
K:Gdorian
A|BA GG AB|cB A2Bc|d2dd (d/e/ d/c/)|d2zd dc|\
B2d2cB|
M:2/4
L:1/8
A2GA|\
M:3/4
L:1/8
AB AG AB|G4z|]

